www/assets/icons/settings.svg

<svg width="24" height="24" viewBox="0 0 24 24" xmlns="http://www.w3.org/2000/svg" fill='currentColor'><path d="M19.14 12.9399C19.18 12.6399 19.2 12.3299 19.2 11.9999C19.2 11.6799 19.18 11.3599 19.13 11.0599L21.16 9.4799C21.34 9.3399 21.39 9.0699 21.28 8.8699L19.36 5.5499C19.24 5.3299 18.99 5.2599 18.77 5.3299L16.38 6.2899C15.88 5.9099 15.35 5.5899 14.76 5.3499L14.4 2.8099C14.36 2.5699 14.16 2.3999 13.92 2.3999H10.08C9.83999 2.3999 9.64999 2.5699 9.60999 2.8099L9.24999 5.3499C8.65999 5.5899 8.11999 5.9199 7.62999 6.2899L5.23999 5.3299C5.01999 5.2499 4.76999 5.3299 4.64999 5.5499L2.73999 8.8699C2.61999 9.0799 2.65999 9.3399 2.85999 9.4799L4.88999 11.0599C4.83999 11.3599 4.79999 11.6899 4.79999 11.9999C4.79999 12.3099 4.81999 12.6399 4.86999 12.9399L2.83999 14.5199C2.65999 14.6599 2.60999 14.9299 2.71999 15.1299L4.63999 18.4499C4.75999 18.6699 5.00999 18.7399 5.22999 18.6699L7.61999 17.7099C8.11999 18.0899 8.64999 18.4099 9.23999 18.6499L9.59999 21.1899C9.64999 21.4299 9.83999 21.5999 10.08 21.5999H13.92C14.16 21.5999 14.36 21.4299 14.39 21.1899L14.75 18.6499C15.34 18.4099 15.88 18.0899 16.37 17.7099L18.76 18.6699C18.98 18.7499 19.23 18.6699 19.35 18.4499L21.27 15.1299C21.39 14.9099 21.34 14.6599 21.15 14.5199L19.14 12.9399ZM12 15.5999C10.02 15.5999 8.39999 13.9799 8.39999 11.9999C8.39999 10.0199 10.02 8.3999 12 8.3999C13.98 8.3999 15.6 10.0199 15.6 11.9999C15.6 13.9799 13.98 15.5999 12 15.5999Z"/></svg>

<svg xmlns="http://www.w3.org/2000/svg" width="24" height="24" viewBox="0 0 24 24" fill='currentColor'><path d="M19.14 12.94c.04-.3.06-.61.06-.94 0-.32-.02-.64-.07-.94l2.03-1.58a.49.49 0 0 0 .12-.61l-1.92-3.32a.49.49 0 0 0-.59-.22l-2.39.96c-.5-.38-1.03-.7-1.62-.94l-.36-2.54a.484.484 0 0 0-.48-.41h-3.84c-.24 0-.43.17-.47.41l-.36 2.54c-.59.24-1.13.57-1.62.94l-2.39-.96c-.22-.08-.47 0-.59.22L2.74 8.87c-.12.21-.08.47.12.61l2.03 1.58c-.05.3-.09.63-.09.94s.02.64.07.94l-2.03 1.58a.49.49 0 0 0-.12.61l1.92 3.32c.12.22.37.29.59.22l2.39-.96c.5.38 1.03.7 1.62.94l.36 2.54c.05.24.24.41.48.41h3.84c.24 0 .44-.17.47-.41l.36-2.54c.59-.24 1.13-.56 1.62-.94l2.39.96c.22.08.47 0 .59-.22l1.92-3.32c.12-.22.07-.47-.12-.61zM12 15.6A3.61 3.61 0 0 1 8.4 12c0-1.98 1.62-3.6 3.6-3.6s3.6 1.62 3.6 3.6-1.62 3.6-3.6 3.6"/></svg>
